symbols/web/app_shortcut/materialsymbolsoutlined/app_shortcut_wght300grad200fill1_20px.svg

<svg xmlns="http://www.w3.org/2000/svg" height="20" width="20"><path d="m17.5 9.292-.542-1.25-1.25-.542 1.25-.562.542-1.23.562 1.23 1.23.562-1.23.542Zm-4.167 4.25-1.104-2.438L9.792 10l2.437-1.104 1.104-2.438 1.105 2.438L16.875 10l-2.437 1.104Zm4.167.75-.542-1.25-1.25-.542 1.25-.562.542-1.23.562 1.23 1.23.562-1.23.562ZM6.083 19.458q-.916 0-1.521-.604-.604-.604-.604-1.521V2.667q0-.917.604-1.521.605-.604 1.521-.604h7.834q.916 0 1.52.604.605.604.605 1.521v2.916h-1.875v-.416H5.833v9.666h8.334v-.416h1.875v2.916q0 .917-.605 1.521-.604.604-1.52.604Z"/></svg>

<svg xmlns="http://www.w3.org/2000/svg" height="20" width="20"><path d="M17.5 9.292 16.958 8.042 15.708 7.5 16.958 6.938 17.5 5.708 18.062 6.938 19.292 7.5 18.062 8.042ZM13.333 13.542 12.229 11.104 9.792 10 12.229 8.896 13.333 6.458 14.438 8.896 16.875 10 14.438 11.104ZM17.5 14.292 16.958 13.042 15.708 12.5 16.958 11.938 17.5 10.708 18.062 11.938 19.292 12.5 18.062 13.062ZM6.083 19.458Q5.167 19.458 4.562 18.854Q3.958 18.25 3.958 17.333V2.667Q3.958 1.75 4.562 1.146Q5.167 0.542 6.083 0.542H13.917Q14.833 0.542 15.437 1.146Q16.042 1.75 16.042 2.667V5.583H14.167V5.167H5.833V14.833H14.167V14.417H16.042V17.333Q16.042 18.25 15.437 18.854Q14.833 19.458 13.917 19.458Z"/></svg>
